**kern	**kern
*staff2	*staff1
*clefF4	*clefG2
*k[b-e-a-d-]	*k[b-e-a-d-]
*M3/4	*M3/4
=-	=-
4r	8c'L
.	8c'J
=290	=290
(4F	(8c
.	4f
4A-	.
.	4a-
4c)	.
.	8f)
=291	=291
(4E	(8c
.	4g
4G	.
.	4b-
4c)	.
.	[8g)
=292	=292
(4F	(8g]
.	4a-
4D-	.
.	4f)
4BB-)	.
.	8g 8b-
=293	=293
2C	(4f 4a-
.	4e) 4g
4r	8cc'L
.	8cc'J
=294	=294
(4A- 4f	(8dd-
.	4cc
4G 4e	.
.	4b-
4F) 4f	.
.	[8a-
=295	=295
2.B- 2.d-	8a-L]
.	8gJ
.	8b-L
.	8dd-J
.	8b-L
.	8gJ)
=296	=296
*^	*
(4A-	2.C	8r
.	.	(4f
4B-	.	.
.	.	4g
4G)	.	.
.	.	8e)
=297	=297	=297
4A-	4F	4f
4r	4FF	4r
*v	*v	*
*-	*-
